X: 1671
T: the Field Marshal   #2
R: hornpipe, reel
%S: s:2 b:11(5+6)
B: O'Neill's 1850 #1671
Z: Compacted via repeats and multiple endings [JC]
O: Cronin
M: 4/4
L: 1/8
K: D
   A2 |: d2fd edfd | defd BAFA | BAGB AFDF |[1,3  Eeed egfe :|[2,4 Agfe d2 :|
|: AG |: F2FD EFED | FGFE FAAB | defd [1,3 edfd | gefd edBA :|[2,4 BAFA | agef d2 :|
